X:244
T: Mai bian shi
N: C0382
O: China,Hebei
S: IV, 72]
N: typisch fuer Shi diao oder mai ben shi diao.
R: Xiaodiao. Jiaomai]
M: 2/4
L: 1/8
K: D
BdA2 | BdA2 | Bd2F | ABA2 |
FABd | ABAF | EFEB, | D3
E | AFAF | EFAF | EFEB, | D4 |
BdA2 | BdA2 | Bd2F | ABA2 |
deff | Fde2 | ddeB | AFA2 |
BdA2 | BdA2 | Bd2F | ABA2 |
deff | Fde2 | ddeB | AFA2

@@@ Tune index: 6245
